!!!COM:	Busnoys, Antoine
!!!CDT:	~1430///-1492/11/06
!!!OTL:	Terrible dame
!!!AGN:	Song; Chanson
!!!SCT:	Bus3056
!!!SCA:	Bus3056
!!!voices:	4
**kern	**text	**kern	**text	**kern	**text	**kern	**text
*staff4	*staff4	*staff3	*staff3	*staff2	*staff2	*staff1	*staff1
*Ivox	*	*Ivox	*	*Ivox	*	*Ivox	*
*I"Bassus	*	*I"Tenor	*	*I"Altus	*	*I"Discantus	*
*I'B	*	*I'T	*	*I'A	*	*I'D	*
*clefF4	*	*clefGv2	*	*clefGv2	*	*clefG2	*
*k[]	*	*k[]	*	*k[]	*	*k[]	*
*M2/1	*	*M2/1	*	*M2/1	*	*M2/1	*
*met(C|)	*	*met(C|)	*	*met(C|)	*	*met(C|)	*
=1-	=1-	=1-	=1-	=1-	=1-	=1-	=1-
!	!	!	!	!LO:TX:X=-30:Z=14:t=Lower altus voice is editorial. (In Pix&eacute;r&eacute;court Chansonnier, ``fauxbourdon'' appears at start of discantus.)	!	!	!
0C	Ter-	0r	.	0G 0c	Ter-	0r	.
=2	=2	=2	=2	=2	=2	=2	=2
1E	-ri-	0r	.	1G 1c	-ri-	0r	.
1F	-ble	.	.	1A 1d	-ble	.	.
=3	=3	=3	=3	=3	=3	=3	=3
1.G	da-	0r	.	1.B 1.e	da-	0r	.
4F	.	.	.	4A 4d	.	.	.
4E	.	.	.	4G 4c	.	.	.
=4	=4	=4	=4	=4	=4	=4	=4
2A	.	0r	.	2c 2f	.	0r	.
1G	.	.	.	1B 1e	.	.	.
4F	.	.	.	4A 4d	.	.	.
4E	.	.	.	4G 4c	.	.	.
=5	=5	=5	=5	=5	=5	=5	=5
2D	.	0r	.	2F 2B	.	0r	.
2C	.	.	.	2E 2A	.	.	.
1D	.	.	.	1F 1B	.	.	.
=6	=6	=6	=6	=6	=6	=6	=6
1C	-me:	1r	.	1G 1c	-me:	1r	.
1r	.	1g	Que	1r	.	1ee	Que
=7	=7	=7	=7	=7	=7	=7	=7
0r	.	1.a	vous	0r	.	1.ff	vous
.	.	4g	.	.	.	4ee	.
.	.	4f	.	.	.	4dd	.
=8	=8	=8	=8	=8	=8	=8	=8
0r	.	2.a	.	0r	.	2.ff	.
.	.	4g	.	.	.	4ee	.
.	.	2e	.	.	.	2cc	.
.	.	[2g	.	.	.	[2ee	.
=9	=9	=9	=9	=9	=9	=9	=9
0r	.	2g]	.	0r	.	2ee]	.
.	.	4f	.	.	.	4dd	.
.	.	4e	.	.	.	4cc	.
.	.	1d;	fault?	.	.	1b;	fault?
=10	=10	=10	=10	=10	=10	=10	=10
1.G	Je	0r	.	1.B 1.e	Je	0r	.
4F	.	.	.	4A 4d	.	.	.
4E	.	.	.	4G 4c	.	.	.
=11	=11	=11	=11	=11	=11	=11	=11
2G	.	0r	.	2B 2e	.	0r	.
2.F	meurs.	.	.	2.A 2.d	meurs.	.	.
4E	.	.	.	4G 4c	.	.	.
4D	.	.	.	4F 4B	.	.	.
4C	.	.	.	4E 4A	.	.	.
=12	=12	=12	=12	=12	=12	=12	=12
2BB	.	0r	.	2D 2G	.	0r	.
1E	.	.	.	1G 1c	.	.	.
2D	.	.	.	2F 2B	.	.	.
=13	=13	=13	=13	=13	=13	=13	=13
2E	.	0r	.	2G 2c	.	0r	.
2F	.	.	.	2A 2d	.	.	.
1D;	.	.	.	1F; 1B;	.	.	.
=14	=14	=14	=14	=14	=14	=14	=14
0r	.	1.c	De	0r	.	1.cc	De
.	.	[2g	.	.	.	[2ee	.
=15	=15	=15	=15	=15	=15	=15	=15
0r	.	4g]	.	0r	.	4ee]	.
.	.	4f	.	.	.	4dd	.
.	.	2d	.	.	.	2b	.
.	.	2e	.	.	.	2cc	.
.	.	[2f	.	.	.	[2dd	.
=16	=16	=16	=16	=16	=16	=16	=16
1r	.	4f]	.	1r	.	4dd]	.
.	.	4e	.	.	.	4cc	.
.	.	4d	.	.	.	4b	.
.	.	4c	.	.	.	4a	.
1G	De	1d	.	1g	De	1b	.
=17	=17	=17	=17	=17	=17	=17	=17
1A	quoy?	0c;	quoy?	1e	quoy?	0cc;	quoy?
1F;	.	.	.	1f;	.	.	.
=18	=18	=18	=18	=18	=18	=18	=18
0r	.	0r	.	0r	.	0r	.
=19	=19	=19	=19	=19	=19	=19	=19
2C	C'est	1.c	C'est	1g	C'est	1cc	C'est
2E	.	.	.	.	.	.	.
2F	par	.	.	2f	par	2a	par
[2G	.	2B	.	2d	def-	2g	def-
=20	=20	=20	=20	=20	=20	=20	=20
2G]	.	1A	par	2e	-fault,	1cc	-fault,
2F	def-	.	.	2f	.	.	.
2G	-fault,	1G	def-	2d	.	2b	.
[2E	.	.	.	2r	.	[2g	.
=21	=21	=21	=21	=21	=21	=21	=21
4E]	.	1c	-fault,	2e	.	4g]	.
4C	.	.	.	.	.	4e	.
2.F	.	.	.	2c	.	2.a	.
.	.	1d	.	2f	.	.	.
4D	.	.	.	.	.	4f	.
[2G	.	.	.	2d	.	[2b-	.
=22	=22	=22	=22	=22	=22	=22	=22
4G]	.	1e	.	2g	.	4b-]	.
4E	.	.	.	.	.	4g	.
2.A	.	.	.	2e	.	2.cc	.
.	.	[1f	.	2a	.	.	.
4F	.	.	.	.	.	4a	.
[2B-	.	.	.	2f	.	[2dd	.
=23	=23	=23	=23	=23	=23	=23	=23
4B-]	.	1f]	.	2r	.	4dd]	.
4A	.	.	.	.	.	4cc	.
2B-i	.	.	.	2d	.	4b-i	.
.	.	.	.	.	.	4a	.
4c	.	1e	.	2e	.	2g	.
4B-i	.	.	.	.	.	.	.
4A	.	.	.	2c	.	[2cc	.
4G	.	.	.	.	.	.	.
=24	=24	=24	=24	=24	=24	=24	=24
2.F	.	0d	.	2f	.	2cc]	.
.	.	.	.	2a	.	4b	.
4E	.	.	.	.	.	4a	.
1G	.	.	.	1g	.	1b	.
=25	=25	=25	=25	=25	=25	=25	=25
0C	.	1r	.	1.e	.	1.cc	.
.	.	1c	Que	.	.	.	.
.	.	.	.	[2c	.	[2ee	.
=26	=26	=26	=26	=26	=26	=26	=26
0r	.	1g	l'on	2c]	.	2ee]	.
.	.	.	.	4B	.	4dd	.
.	.	.	.	4A	.	4cc	.
.	.	1g	ne	2.c	.	2.ee	.
.	.	.	.	4B	.	4dd	.
=27	=27	=27	=27	=27	=27	=27	=27
0r	.	1g	peult	3%4GV	.	0b	.
.	.	1g	mer-	.	.	.	.
.	.	.	.	3%2EZ	.	.	.
=28	=28	=28	=28	=28	=28	=28	=28
0r	.	1f	-ci	3%2DV	.	1r	.
.	.	.	.	3%4FZ	.	.	.
.	.	1f	trou-	.	.	1cc	Que
=29	=29	=29	=29	=29	=29	=29	=29
1c	mer-	2.e	-ver	1C	.	1gg	l'on
.	.	8dL	.	.	.	.	.
.	.	8cJ	.	.	.	.	.
2d	-ci	2B	.	1r	.	1gg	ne
[2e	trou-	[2c	.	.	.	.	.
=30	=30	=30	=30	=30	=30	=30	=30
4e]	.	4c]	.	0r	.	1gg	peult
4d	.	4d	.	.	.	.	.
2.c	.	2.e	.	.	.	.	.
.	.	.	.	.	.	1gg	mer-
4B	.	4d	.	.	.	.	.
2c	.	2e	.	.	.	.	.
=31	=31	=31	=31	=31	=31	=31	=31
4d	-ver	4f	.	0r	.	1ff	-ci
4c	.	4e	.	.	.	.	.
4B	.	4d	.	.	.	.	.
4A	.	4c	.	.	.	.	.
1B	.	1d	.	.	.	1ff	trou-
=32	=32	=32	=32	=32	=32	=32	=32
0r	.	0r	.	1c	trou-	2.ee	-ver
.	.	.	.	.	.	8ddL	.
.	.	.	.	.	.	8ccJ	.
.	.	.	.	2d	-ver	2b	.
.	.	.	.	[2e	.	[2cc	.
=33	=33	=33	=33	=33	=33	=33	=33
0r	.	0r	.	4e]	.	4cc]	.
.	.	.	.	4d	.	4dd	.
.	.	.	.	2.c	.	2.ee	.
.	.	.	.	4B	.	4dd	.
.	.	.	.	2c	.	2ee	.
=34	=34	=34	=34	=34	=34	=34	=34
1r	.	0r	.	4d	.	4ff	.
.	.	.	.	4c	.	4ee	.
.	.	.	.	4B	.	4dd	.
.	.	.	.	4A	.	4cc	.
1G	Et	.	.	1B	.	1dd	.
=35	=35	=35	=35	=35	=35	=35	=35
1A	me	0r	.	2c	.	1r	.
.	.	.	.	2.f	.	.	.
1A	con-	.	.	.	.	1cc	Et
.	.	.	.	4g	.	.	.
.	.	.	.	[2a	.	.	.
=36	=36	=36	=36	=36	=36	=36	=36
1A	-vient	0r	.	4a]	.	1cc	me
.	.	.	.	4g	.	.	.
.	.	.	.	2e	.	.	.
1A	le	.	.	2f	.	1cc	con-
.	.	.	.	4e	.	.	.
.	.	.	.	4f	.	.	.
=37	=37	=37	=37	=37	=37	=37	=37
1G	temps	1r	.	1g	.	1b	-vient
1E	pas-	1c	Et	1r	.	1g	le
=38	=38	=38	=38	=38	=38	=38	=38
1.F	-ser	1c	me	0r	.	1a	temps
.	.	1c	con-	.	.	1a	pas-
4E	.	.	.	.	.	.	.
4F	.	.	.	.	.	.	.
=39	=39	=39	=39	=39	=39	=39	=39
1G	.	1B	-vient	1r	.	2g	-ser
.	.	.	.	.	.	2dd	.
1r	.	1G	le	1g	pas-	2ee	.
.	.	.	.	.	.	2gg	.
=40	=40	=40	=40	=40	=40	=40	=40
0r	.	1A	temps	2.c	-ser	2ff	.
.	.	.	.	.	.	1ee	.
.	.	.	.	4d	.	.	.
.	.	1A	pas-	2.e	.	.	.
.	.	.	.	.	.	4dd	.
.	.	.	.	4f	.	4cc	.
=41	=41	=41	=41	=41	=41	=41	=41
0G	Mar-	2G	-ser	2g	.	0b	.
.	.	2d	.	2.g	.	.	.
.	.	2e	.	.	.	.	.
.	.	.	.	4f	.	.	.
.	.	2g	.	4e	.	.	.
.	.	.	.	4d	.	.	.
=42	=42	=42	=42	=42	=42	=42	=42
1A	-tir	2f	.	2.c	.	0r	.
.	.	1e	.	.	.	.	.
.	.	.	.	4B	.	.	.
1A	tout	.	.	1c	.	.	.
.	.	4d	.	.	.	.	.
.	.	4c	.	.	.	.	.
=43	=43	=43	=43	=43	=43	=43	=43
2G	vif,	1B	.	1d	.	1g	Mar-
2B	.	.	.	.	.	.	.
2A	.	1r	.	1r	.	1a	-tir
2c	.	.	.	.	.	.	.
=44	=44	=44	=44	=44	=44	=44	=44
2B	.	1G	Mar-	0r	.	1b	tout
4A	.	.	.	.	.	.	.
4G	.	.	.	.	.	.	.
2.F#i	.	1A	-tir	.	.	1cc	vif,
4E	.	.	.	.	.	.	.
=45	=45	=45	=45	=45	=45	=45	=45
1G	.	1B	tout	1d	tout	1r	.
1r	.	1c	vif,	2c	vif,	1cc	ou
.	.	.	.	2e	ou	.	.
=46	=46	=46	=46	=46	=46	=46	=46
0r	.	1r	.	2d	au-	1dd	au-
.	.	.	.	2f	.	.	.
.	.	1c	ou	2e	-tant	1ee	-tant
.	.	.	.	4d	.	.	.
.	.	.	.	4c	.	.	.
=47	=47	=47	=47	=47	=47	=47	=47
0r	.	1d	au-	2.B	.	1ff	vault,
.	.	.	.	4A	.	.	.
.	.	1e	-tant	1c	vault,	2ee	.
.	.	.	.	.	.	[2cc	.
=48	=48	=48	=48	=48	=48	=48	=48
1r	.	1f	vault,	1F	.	4cc]	.
.	.	.	.	.	.	4b	.
.	.	.	.	.	.	2a	.
1c	ou	2e	.	1r	.	2g	.
.	.	[2c	.	.	.	[2a	.
=49	=49	=49	=49	=49	=49	=49	=49
1F	au-	4c]	.	2.c	.	2a]	.
.	.	4B	.	.	.	.	.
.	.	2A	.	.	.	2cc	.
.	.	.	.	4d	.	.	.
2G	.	2G	.	2e	.	2b	.
2F	.	[2A	.	2f	.	2a	.
=50	=50	=50	=50	=50	=50	=50	=50
1A	-tant	2A]	.	2r	.	1ee	.
.	.	2c	.	2c	.	.	.
2B	.	2B	.	2d	.	2dd	.
2c	.	2A	.	2e	.	2cc	.
=51	=51	=51	=51	=51	=51	=51	=51
2r	.	1e	.	1c	.	2r	.
2C	vault,	.	.	.	.	2gg	.
2D	.	2d	.	1r	.	2ff	.
2E	.	2c	.	.	.	[2ee	.
=52	=52	=52	=52	=52	=52	=52	=52
1C	.	2r	.	2r	.	4ee]	.
.	.	.	.	.	.	4cc	.
.	.	2g	.	2c	.	2ee	.
1r	.	2f	.	2d	.	2dd	.
.	.	[2e	.	2e	.	2cc	.
=53	=53	=53	=53	=53	=53	=53	=53
2r	.	4e]	.	1c	.	1gg	.
.	.	4c	.	.	.	.	.
2C	.	2e	.	.	.	.	.
2D	.	2d	.	1r	.	2ff	.
2E	.	2c	.	.	.	[2gg	.
=54	=54	=54	=54	=54	=54	=54	=54
1C	.	1g	.	1c	.	2gg]	.
.	.	.	.	.	.	4ff	.
.	.	.	.	.	.	4ee	.
2r	.	2f	.	2d	.	2dd	.
2C	.	[2g	.	2c	.	[2ee	.
=55	=55	=55	=55	=55	=55	=55	=55
2E	.	2g]	.	2g	.	2ee]	.
2F	.	4f	.	2a	.	4dd	.
.	.	4e	.	.	.	4cc	.
1G	.	1d	.	1g	.	2.b	.
.	.	.	.	.	.	4a	.
=56	=56	=56	=56	=56	=56	=56	=56
1.A	.	1.c	.	1.e	.	1.cc	.
4G	ou	2d	ou	2f	ou	2b	ou
4F	.	.	.	.	.	.	.
=57	=57	=57	=57	=57	=57	=57	=57
1E	au-	1e	au-	1g	au-	1cc	au-
1D	.	1f	.	1a	.	1dd	.
=58	=58	=58	=58	=58	=58	=58	=58
0G;	-tant	0d;	-tant	0g;	-tant	0b;	-tant
=59	=59	=59	=59	=59	=59	=59	=59
0Cl	vault.	0cl	vault.	0gl	vault.	0ccl	vault.
==	==	==	==	==	==	==	==
*-	*-	*-	*-	*-	*-	*-	*-
!!!RDF**kern: l=long note in original notation
!!!RDF**kern: i=editorial accidental
!!!RDF**kern: V=start of tuplet marker
!!!RDF**kern: Z=end of tuplet marker
!!!ENC:	Chris Gage 04-15-2015
!!!END:	2015/11/01/
!!!EED:	Jesse Rodin
!!!EEV:	2015/11/01/
!!!ONB:	Translated from MusicXML and edited on 2015/11/01/ by Craig Sapp
!!muse2ps: C^@{COM}^i2I150v90,90,90,110Q16z18c66l2600
